symbols/web/streetview/materialsymbolsoutlined/streetview_grad200_24px.svg

<svg xmlns="http://www.w3.org/2000/svg" height="24" width="24"><path d="M18.75 11q-2.4 0-4.075-1.688Q13 7.625 13 5.25q0-2.4 1.675-4.075Q16.35-.5 18.75-.5q2.4 0 4.075 1.675Q24.5 2.85 24.5 5.25q0 2.375-1.675 4.062Q21.15 11 18.75 11ZM2.2 21.8q-.3-.3-.5-.725t-.2-.875V4.1q0-.95.675-1.625T3.8 1.8h7.75q-.425.75-.637 1.625Q10.7 4.3 10.7 5.25q0 1.65.65 3.125T13.1 10.9Zm9.65.7v-6.25q0-1.2.738-2.163.737-.962 1.912-1.237 1.025-.2 2.088-.325 1.062-.125 2.162-.125.95 0 1.8.087.85.088 1.65.213v7.5q0 .95-.675 1.625T19.9 22.5Z"/></svg>

<svg xmlns="http://www.w3.org/2000/svg" height="24" width="24"><path d="M18.75 11Q16.35 11 14.675 9.312Q13 7.625 13 5.25Q13 2.85 14.675 1.175Q16.35 -0.5 18.75 -0.5Q21.15 -0.5 22.825 1.175Q24.5 2.85 24.5 5.25Q24.5 7.625 22.825 9.312Q21.15 11 18.75 11ZM2.2 21.8Q1.9 21.5 1.7 21.075Q1.5 20.65 1.5 20.2V4.1Q1.5 3.15 2.175 2.475Q2.85 1.8 3.8 1.8H11.55Q11.125 2.55 10.913 3.425Q10.7 4.3 10.7 5.25Q10.7 6.9 11.35 8.375Q12 9.85 13.1 10.9ZM11.85 22.5V16.25Q11.85 15.05 12.588 14.087Q13.325 13.125 14.5 12.85Q15.525 12.65 16.588 12.525Q17.65 12.4 18.75 12.4Q19.7 12.4 20.55 12.487Q21.4 12.575 22.2 12.7V20.2Q22.2 21.15 21.525 21.825Q20.85 22.5 19.9 22.5Z"/></svg>
